X:1
T:Title
%%score ( 1 2 ) { 3 | 4 }
L:1/8
Q:1/4=87
M:6/8
K:G
V:1 treble nm="Grand Piano, Soprano"
V:2 treble 
V:3 bass nm="Choir Pad, Bass"
V:4 bass 
V:1
 B/c/[Gd][Gd] [Gd][GB][DA] | [DG][EA][EG] [CE] [B,D]2 | G/A/[GB][FA] [DG][Gd][Fc] | %3
w: By~Matthew~Lindsay~McPhail * * * * * *|||
 [GB] [FA]2- [FA]2- [FA]/ z/ | B/c/[Gd][Ge] [Gd][GB][DA] | [DG][EA][EG] [CE] [B,D]2 | %6
w: |||
 [DG][GB][DA] [DG][GB][GB] | [DA] [DG]2- [DG]2- [DG]/ z/ | [B,G][EG]>[DF] [CE][EG][DF] | %9
w: |||
 [CE] B,2- [B,G-]/G/ [DB]2 | [GB][GB]>[GA] G[GB][GA] | G A2- A d2 | [Gd][Gd][Ge] [Gd][GB][DA] | %13
w: ||||
 [DG][EA][EG] [CE] [B,D]2 | [DG][GB][DA] [DG][GB][GB] | [DA] [DG]2- [DG]3- | [DG]3 z3 |] %17
w: ||||
V:2
 .D3 z3 | x6 | .D3 z3 | x6 | .D3 z3 | x6 | x6 | x6 | x6 | z D2 z3 | x6 | z F2- F2- F/ z/ | x6 | %13
 x6 | x6 | x6 | x6 |] %17
V:3
 G,/A,/B,C B,[K:treble]DC | B,CC[K:bass] G, G,2 | B,/C/D[K:treble]C B,DD | D D2- D2- D/ z/ | %4
 G,/A,/B,C B,[K:treble]DC | B,CC[K:bass] G, G,2 | B,DC B,DD | C B,2- B,2- B,/ z/ | G,G,>G, G,G,G, | %9
 G,G,G, G, G,2 | D^C>C CCC | ^C D2 D =C2 | B,B,C B,D[K:treble]C | B,CC G,[K:bass] G,2 | %14
 B,DC B,[K:treble]DD | C B,2- B,3- | B,3 z3 |] %17
V:4
 z G,G, G,G,G, | G,C,C, C, G,,2 | G,G,G, G,B,A, | G, D,2- D,2- D,/ z/ | z G,G, G,G,G, | %5
 G,C,C, C, G,,2 | G,G,G, G,D,D, | D, G,,2- G,,2- G,,/ z/ | G,,C,>C, C,C,C, | C,G,,B,, .D,3 | %10
 G,E,>E, E,E,E, | E,D,F, A, D,2 | G,G,G, G,G,G, | G,C,C, C, G,,2 | G,G,G, G,D,D, | D, G,,2- G,,3- | %16
 G,,3 z3 |] %17

